svg/triangles2.svg

<?xml version="1.0" encoding="UTF-8" standalone="no"?>
<svg
   width="32"
   height="32"
   viewBox="0 0 8.467 8.467"
   version="1.1"
   id="svg1513"
   sodipodi:docname="triangles2.svg"
   inkscape:version="1.2 (dc2aeda, 2022-05-15)"
   xmlns:inkscape="http://www.inkscape.org/namespaces/inkscape"
   xmlns:sodipodi="http://sodipodi.sourceforge.net/DTD/sodipodi-0.dtd"
   xmlns="http://www.w3.org/2000/svg"
   xmlns:svg="http://www.w3.org/2000/svg">
  <defs
     id="defs1517" />
  <sodipodi:namedview
     id="namedview1515"
     pagecolor="#505050"
     bordercolor="#ffffff"
     borderopacity="1"
     inkscape:showpageshadow="0"
     inkscape:pageopacity="0"
     inkscape:pagecheckerboard="1"
     inkscape:deskcolor="#505050"
     showgrid="true"
     inkscape:zoom="32.09375"
     inkscape:cx="15.828627"
     inkscape:cy="16"
     inkscape:window-width="1390"
     inkscape:window-height="1205"
     inkscape:window-x="0"
     inkscape:window-y="25"
     inkscape:window-maximized="0"
     inkscape:current-layer="svg1513">
    <inkscape:grid
       type="xygrid"
       id="grid2051"
       empspacing="4" />
  </sodipodi:namedview>
  <path
     style="fill:#000000;stroke:none;stroke-width:0.264594px;stroke-linecap:butt;stroke-linejoin:miter;stroke-opacity:1"
     d="M 8.4669999,2.11675 6.3502499,0 v 2.11675 h 2.11675"
     id="path626" />
  <path
     style="fill:#000000;stroke:none;stroke-width:0.264594px;stroke-linecap:butt;stroke-linejoin:miter;stroke-opacity:1"
     d="M 4.2334999,2.11675 2.1167499,0 v 2.11675 h 2.11675"
     id="path633" />
  <path
     style="fill:#000000;stroke:none;stroke-width:0.264594px;stroke-linecap:butt;stroke-linejoin:miter;stroke-opacity:1"
     d="M -9.9999999e-8,2.11675 2.1167499,4.2335 V 2.11675 H -9.9999999e-8"
     id="path635" />
  <path
     style="fill:#000000;stroke:none;stroke-width:0.264594px;stroke-linecap:butt;stroke-linejoin:miter;stroke-opacity:1"
     d="m 4.2334999,2.11675 2.11675,2.11675 V 2.11675 h -2.11675"
     id="path637" />
  <path
     style="fill:#000000;stroke:none;stroke-width:0.264594px;stroke-linecap:butt;stroke-linejoin:miter;stroke-opacity:1"
     d="M 8.4669999,6.3502502 6.3502499,4.2335 v 2.1167502 h 2.11675"
     id="path639" />
  <path
     style="fill:#000000;stroke:none;stroke-width:0.264594px;stroke-linecap:butt;stroke-linejoin:miter;stroke-opacity:1"
     d="M 4.2334999,6.3502502 2.1167499,4.2335 v 2.1167502 h 2.11675"
     id="path641" />
  <path
     style="fill:#000000;stroke:none;stroke-width:0.264594px;stroke-linecap:butt;stroke-linejoin:miter;stroke-opacity:1"
     d="M -9.9999999e-8,6.3502502 2.1167499,8.4670003 V 6.3502502 H -9.9999999e-8"
     id="path643" />
  <path
     style="fill:#000000;stroke:none;stroke-width:0.264594px;stroke-linecap:butt;stroke-linejoin:miter;stroke-opacity:1"
     d="m 4.2334999,6.3502502 2.11675,2.1167501 V 6.3502502 h -2.11675"
     id="path645" />
  <path
     style="fill:#000000;stroke:none;stroke-width:0.264594px;stroke-linecap:butt;stroke-linejoin:miter;stroke-opacity:1"
     d="M 1.0583749,4.2335 -9.9999999e-8,5.2918751 V 4.2335 H 1.0583749"
     id="path659" />
  <path
     style="fill:#000000;stroke:none;stroke-width:0.264594px;stroke-linecap:butt;stroke-linejoin:miter;stroke-opacity:1"
     d="M 7.4086255,4.2334999 8.467,3.1751253 V 4.2334999 H 7.4086255"
     id="path661" />
  <path
     style="fill:#000000;stroke:none;stroke-width:0.264594px;stroke-linecap:butt;stroke-linejoin:miter;stroke-opacity:1"
     d="M 1.0583749,3e-7 -9.9999999e-8,1.0583751 V 3e-7 H 1.0583749"
     id="path677" />
  <path
     style="fill:#000000;stroke:none;stroke-width:0.264594px;stroke-linecap:butt;stroke-linejoin:miter;stroke-opacity:1"
     d="M 7.4086255,8.4670003 8.467,7.4086255 V 8.4670002 H 7.4086255"
     id="path739" />
  <path
     style="fill:#000000;stroke:none;stroke-width:0.264594px;stroke-linecap:butt;stroke-linejoin:miter;stroke-opacity:1"
     d="M 3.1751254,8.4670003 4.2334999,7.4086255 V 8.4670002 H 3.1751254"
     id="path741" />
  <path
     style="fill:#000000;stroke:none;stroke-width:0.264594px;stroke-linecap:butt;stroke-linejoin:miter;stroke-opacity:1"
     d="M 5.2918753,3e-7 4.2335006,1.0583751 V 3e-7 h 1.0583747"
     id="path743" />
</svg>

<svg width="32" height="32" viewBox="0 0 8.467 8.467" xmlns="http://www.w3.org/2000/svg"><path style="fill:#000;stroke:none;stroke-width:.264594px;stroke-linecap:butt;stroke-linejoin:miter;stroke-opacity:1" d="M8.467 2.117 6.35 0v2.117h2.117M4.233 2.117 2.117 0v2.117h2.116M0 2.117l2.117 2.117V2.117H0M4.233 2.117 6.35 4.234V2.117H4.233M8.467 6.35 6.35 4.234V6.35h2.117M4.233 6.35 2.117 4.234V6.35h2.116M0 6.35l2.117 2.117V6.35H0M4.233 6.35 6.35 8.467V6.35H4.233M1.058 4.234 0 5.292V4.234h1.058M7.409 4.233l1.058-1.058v1.058H7.409M1.058 0 0 1.058V0h1.058M7.409 8.467l1.058-1.058v1.058H7.409M3.175 8.467l1.058-1.058v1.058H3.175M5.292 0 4.234 1.058V0h1.058"/></svg>
